coreui/free/cil-command.svg

<svg viewBox="0 0 512 512" xmlns="http://www.w3.org/2000/svg"><path d="M416 176v0c44.18 0 80-35.82 80-80 0-44.19-35.82-80-80-80 -44.19 0-80 35.81-80 80v48H176V96v0c0-44.19-35.82-80-80-80 -44.19 0-80 35.81-80 80 0 44.18 35.81 80 80 80h48v160H96v0c-44.19 0-80 35.81-80 80 0 44.18 35.81 80 80 80 44.18 0 80-35.82 80-80v-48h160v48 0c0 44.18 35.81 80 80 80 44.18 0 80-35.82 80-80 0-44.19-35.82-80-80-80h-48V176Zm-48-80v0c0-26.51 21.49-48 48-48 26.5 0 48 21.49 48 48 0 26.5-21.5 48-48 48h-48ZM144 416v0c0 26.5-21.5 48-48 48 -26.51 0-48-21.5-48-48 0-26.51 21.49-48 48-48h48Zm0-272H96v0c-26.51 0-48-21.5-48-48 0-26.51 21.49-48 48-48 26.5 0 48 21.49 48 48Zm192 192H176V176h160Zm80 32v0c26.5 0 48 21.49 48 48 0 26.5-21.5 48-48 48 -26.51 0-48-21.5-48-48v-48Z"/></svg>

<svg xmlns="http://www.w3.org/2000/svg" viewBox="0 0 512 512">
  <path fill="var(--ci-primary-color, currentColor)" d="M416,176a80,80,0,1,0-80-80v48H176V96a80,80,0,1,0-80,80h48V336H96a80,80,0,1,0,80,80V368H336v48a80,80,0,1,0,80-80H368V176ZM368,96a48,48,0,1,1,48,48H368ZM144,416a48,48,0,1,1-48-48h48Zm0-272H96a48,48,0,1,1,48-48ZM336,336H176V176H336Zm80,32a48,48,0,1,1-48,48V368Z" class="ci-primary"/>
</svg>
